svg/weather/wind_fill.svg

<?xml version="1.0" encoding="UTF-8"?>
<svg width="24px" height="24px" viewBox="0 0 24 24" version="1.1" xmlns="http://www.w3.org/2000/svg" xmlns:xlink="http://www.w3.org/1999/xlink">
    <title>wind_fill</title>
    <g id="页面-1" stroke="none" stroke-width="1" fill="none" fill-rule="evenodd">
        <g id="Weather" transform="translate(-433.000000, -48.000000)">
            <g id="wind_fill" transform="translate(433.000000, 48.000000)">
                 <path d="M24,0 L24,24 L0,24 L0,0 L24,0 Z M12.5934901,23.257841 L12.5819402,23.2595131 L12.5108777,23.2950439 L12.4918791,23.2987469 L12.4918791,23.2987469 L12.4767152,23.2950439 L12.4056548,23.2595131 C12.3958229,23.2563662 12.3870493,23.2590235 12.3821421,23.2649074 L12.3780323,23.275831 L12.360941,23.7031097 L12.3658947,23.7234994 L12.3769048,23.7357139 L12.4804777,23.8096931 L12.4953491,23.8136134 L12.4953491,23.8136134 L12.5071152,23.8096931 L12.6106902,23.7357139 L12.6232938,23.7196733 L12.6232938,23.7196733 L12.6266527,23.7031097 L12.609561,23.275831 C12.6075724,23.2657013 12.6010112,23.2592993 12.5934901,23.257841 L12.5934901,23.257841 Z M12.8583906,23.1452862 L12.8445485,23.1473072 L12.6598443,23.2396597 L12.6498822,23.2499052 L12.6498822,23.2499052 L12.6471943,23.2611114 L12.6650943,23.6906389 L12.6699349,23.7034178 L12.6699349,23.7034178 L12.678386,23.7104931 L12.8793402,23.8032389 C12.8914285,23.8068999 12.9022333,23.8029875 12.9078286,23.7952264 L12.9118235,23.7811639 L12.8776777,23.1665331 C12.8752882,23.1545897 12.8674102,23.1470016 12.8583906,23.1452862 L12.8583906,23.1452862 Z M12.1430473,23.1473072 C12.1332178,23.1423925 12.1221763,23.1452606 12.1156365,23.1525954 L12.1099173,23.1665331 L12.0757714,23.7811639 C12.0751323,23.7926639 12.0828099,23.8018602 12.0926481,23.8045676 L12.108256,23.8032389 L12.3092106,23.7104931 L12.3186497,23.7024347 L12.3186497,23.7024347 L12.3225043,23.6906389 L12.340401,23.2611114 L12.337245,23.2485176 L12.337245,23.2485176 L12.3277531,23.2396597 L12.1430473,23.1473072 Z" id="MingCute" fill-rule="nonzero"></path>
                <path d="M10.5,4.5 C10.0923,4.5 9.73823,4.74424 9.58255,5.10056 C9.25087,5.85969 8.3666,6.20621 7.60746,5.87453 C6.84833,5.54285 6.50181,4.65857 6.83349,3.89944 C7.44937,2.48986 8.85741,1.5 10.5,1.5 C12.7091,1.5 14.5,3.29086 14.5,5.5 C14.5,7.70914 12.7091,9.5 10.5,9.5 L5,9.5 C4.17157,9.5 3.5,8.82843 3.5,8 C3.5,7.17157 4.17157,6.5 5,6.5 L10.5,6.5 C11.0523,6.5 11.5,6.05228 11.5,5.5 C11.5,4.94772 11.0523,4.5 10.5,4.5 Z M18.5,8.5 C18.0923,8.5 17.7382,8.74424 17.5826,9.10056 C17.2509,9.85969 16.3666,10.2062 15.6075,9.87453 C14.8483,9.54285 14.5018,8.65857 14.8335,7.89944 C15.4494,6.48986 16.8574,5.5 18.5,5.5 C20.7091,5.5 22.5,7.29086 22.5,9.5 C22.5,11.7091 20.7091,13.5 18.5,13.5 L3,13.5 C2.17157,13.5 1.5,12.8284 1.5,12 C1.5,11.1716 2.17157,10.5 3,10.5 L18.5,10.5 C19.0523,10.5 19.5,10.0523 19.5,9.5 C19.5,8.94772 19.0523,8.5 18.5,8.5 Z M13.5826,18.8994 C13.7382,19.2558 14.0923,19.5 14.5,19.5 C15.0523,19.5 15.5,19.0523 15.5,18.5 C15.5,17.9477 15.0523,17.5 14.5,17.5 L8,17.5 C7.17157,17.5 6.5,16.8284 6.5,16 C6.5,15.1716 7.17157,14.5 8,14.5 L14.5,14.5 C16.7091,14.5 18.5,16.2909 18.5,18.5 C18.5,20.7091 16.7091,22.5 14.5,22.5 C12.8574,22.5 11.4494,21.5101 10.8335,20.1006 C10.5018,19.3414 10.8483,18.4571 11.6075,18.1255 C12.3666,17.7938 13.2509,18.1403 13.5826,18.8994 Z" id="形状" fill="#09244B"></path>
            </g>
        </g>
    </g>
</svg>

<svg xmlns="http://www.w3.org/2000/svg" width="24" height="24"><g fill="none" fill-rule="evenodd"><path d="M24 0v24H0V0h24ZM12.593 23.258l-.011.002-.071.035-.02.004-.014-.004-.071-.035c-.01-.004-.019-.001-.024.005l-.004.01-.017.428.005.02.01.013.104.074.015.004.012-.004.104-.074.012-.016.004-.017-.017-.427c-.002-.01-.009-.017-.017-.018Zm.265-.113-.013.002-.185.093-.01.01-.003.011.018.43.005.012.008.007.201.093c.012.004.023 0 .029-.008l.004-.014-.034-.614c-.003-.012-.01-.02-.02-.022Zm-.715.002a.023.023 0 0 0-.027.006l-.006.014-.034.614c0 .012.007.02.017.024l.015-.002.201-.093.01-.008.004-.011.017-.43-.003-.012-.01-.01-.184-.092Z"/><path fill="#09244B" d="M10.5 4.5a1 1 0 0 0-.917.6 1.5 1.5 0 1 1-2.75-1.2A4 4 0 1 1 10.5 9.5H5a1.5 1.5 0 1 1 0-3h5.5a1 1 0 1 0 0-2Zm8 4a1 1 0 0 0-.917.6 1.5 1.5 0 0 1-2.75-1.2 4 4 0 1 1 3.667 5.6H3a1.5 1.5 0 0 1 0-3h15.5a1 1 0 1 0 0-2Zm-4.917 10.4a1 1 0 1 0 .917-1.4H8a1.5 1.5 0 0 1 0-3h6.5a4 4 0 1 1-3.666 5.6 1.5 1.5 0 1 1 2.749-1.2Z"/></g></svg>
